svg/fluentui-system-icons/ic_fluent_airplane_20_filled.svg

<svg width="20" height="20" viewBox="0 0 20 20" fill="none" xmlns="http://www.w3.org/2000/svg">
<path d="M9 2C9.60747 2 10.1573 2.35961 10.4008 2.91616L12.768 8.326L16.0039 8.12476C17.0396 8.06003 17.9316 8.84713 17.9963 9.8828L18 10C18 11.0377 17.1588 11.8789 16.1211 11.8789L16.0039 11.8752L12.768 11.673L10.4008 17.0838C10.1573 17.6404 9.60747 18 9 18C8.51245 18 8.11722 17.6048 8.11722 17.1172L8.11892 17.0624L8.822 11.426L6.364 11.272L5.22361 13.5528C5.08657 13.8269 4.80643 14 4.5 14C4.22386 14 4 13.7761 4 13.5V11.124L2.93762 11.0586C2.41059 11.0257 2 10.5886 2 10.0605V9.93945C2 9.41139 2.41059 8.97434 2.93762 8.9414L4 8.875V6.5C4 6.22386 4.22386 6 4.5 6C4.80643 6 5.08657 6.17313 5.22361 6.44721L6.363 8.727L8.822 8.573L8.12403 2.99228C8.06356 2.5085 8.40672 2.06729 8.8905 2.00682C8.92683 2.00228 8.9634 2 9 2Z" fill="#212121"/>
</svg>

<svg xmlns="http://www.w3.org/2000/svg" width="20" height="20"><path d="M9 2c.607 0 1.157.36 1.4.916l2.368 5.41 3.236-.201a1.879 1.879 0 0 1 1.992 1.758L18 10a1.879 1.879 0 0 1-1.879 1.879l-.117-.004-3.236-.202-2.367 5.41A1.529 1.529 0 0 1 9 18a.883.883 0 0 1-.883-.883l.002-.055.703-5.636-2.458-.154-1.14 2.28A.809.809 0 0 1 4.5 14a.5.5 0 0 1-.5-.5v-2.376l-1.062-.065A1 1 0 0 1 2 10.06v-.122a1 1 0 0 1 .938-.998L4 8.875V6.5a.5.5 0 0 1 .5-.5.81.81 0 0 1 .724.447l1.139 2.28 2.459-.154-.698-5.58A.883.883 0 0 1 9 2Z"/></svg>
